X: 120
T: Rad to słyszę, że dom Pański nawiedzić mamy
C: Mikołaj Gomółka
%%abc-version 2.0
%%abcx-abcm2ps-target-version 5.9.1 (29 Sep 2008)
%%abc-creator hum2abc beta
%%abcx-conversion-date 2021/10/04 07:59:10
%%abc-edited-by Anna Matuszewska
%%abcx-initial-encoding-date 2020-02-19
%%humdrum-veritas 817700561
%%humdrum-veritas-data 467330426
%%linebreak <none>
%%barnumbers 0
L: 1/4
M: C|
N: Derived from pl-wn--sd-xvi-qu-273--122_gomolka-mikolaj--rad-to-slysze-ze-dom-panski-nawiedzic-mamy.krn
%%staves [1 2 3 4]
V: 1
V: 2
V: 3 clef=alto
V: 4
K: F
[V:1] G4c2c2 | 
[V:2] D4E3F | 
[V:3] =B,4C2C2 | 
[V:4] G,4E,2C,2 [|] 
[V:1] =B2e2d2d2 | 
[V:2] G2c4=B2 | 
[V:3] D2G2A2GF | 
[V:4] G,2E,2F,2G,2 [|] 
[V:1] c2e2dcc4 | 
[V:2] c2=B2A2A2 | 
[V:3] E2G2F3E | 
[V:4] A,2E,2F,2F,2 [|] 
[V:1] =B2c4 | 
[V:2] G2>F2E4 | 
[V:3] DCD2C4 | 
[V:4] G,4C,4 | 
[V:1] e4d2d2 [I:setbarnb 6]| 
[V:2] G2>A2=B2B2 | 
[V:3] C4=B,2B,2 | 
[V:4] C,4G,2G,2 [|] 
[V:1] c2c2=B2A2 | 
[V:2] A2A2G2F2 | 
[V:3] C2C2D2D2 | 
[V:4] A,2F,2G,2D,2 [|] 
[V:1] =B2G2A2G4 | 
[V:2] G2G2F2D2 | 
[V:3] =B,2EDC2B,2 | 
[V:4] G,2E,2F,2G,2 [|] 
[V:1] F2G2c4 | 
[V:2] C4=B,2G4 | 
[V:3] C4D2E2 | 
[V:4] A,4G,2C,4 [|] 
[V:1] c2A2A2 | 
[V:2] G2F2F2 | 
[V:3] E2>D2C2C2 | 
[V:4] C,2F,2F,2 [|] 
[V:1] G2d2c3=B | 
[V:2] E2G2>F2E2 | 
[V:3] C2D2E2C2 | 
[V:4] C2B,2A,3G, [|] 
[V:1] A=BcBAGA2 | 
[V:2] E2G2F3E | 
[V:3] CDEDC=B,CA, | 
[V:4] F,2E,2F,2F,2 [|] 
[V:1] G4G4 | 
[V:2] DCD2E4 | 
[V:3] =B,C2B,C4 | 
[V:4] G,4C,4 | 


